public/ExpressJS.svg

<svg width="120" height="60" viewBox="0 0 120 60" fill="none" xmlns="http://www.w3.org/2000/svg">
<path d="M40 41.753V18.708H41.25V22.333C41.3976 22.1723 41.5339 22.0015 41.658 21.822C42.702 19.656 44.904 18.289 47.308 18.316C50.158 18.231 52.474 19.286 53.835 21.822C54.7011 23.3975 55.1777 25.1573 55.225 26.9545C55.2723 28.7517 54.889 30.5341 54.107 32.153C52.839 34.995 49.707 36.408 46.354 35.889C45.3105 35.8003 44.3059 35.4516 43.4318 34.8748C42.5577 34.298 41.842 33.5115 41.35 32.587V41.752L40 41.753ZM41.25 26.86L41.53 29.566C42.024 32.646 43.845 34.466 46.704 34.808C48.0466 35.0287 49.4242 34.777 50.602 34.0958C51.7798 33.4145 52.6849 32.3459 53.163 31.072C54.275 28.422 54.193 25.422 52.943 22.834C52.4327 21.6921 51.5647 20.7473 50.4699 20.1424C49.3752 19.5374 48.1133 19.3053 46.875 19.481C45.7126 19.5656 44.6055 20.01 43.7073 20.7527C42.8091 21.4953 42.1645 22.4992 41.863 23.625C41.5968 24.6903 41.3921 25.7701 41.25 26.859V26.86ZM80.748 29.992C80.5584 31.6146 79.786 33.1131 78.5744 34.2088C77.3627 35.3046 75.7944 35.923 74.161 35.949C68.919 36.213 66.459 32.732 66.068 28.715C65.7961 26.5336 66.1502 24.3198 67.089 22.332C67.7424 20.9684 68.8129 19.8482 70.1455 19.1337C71.4782 18.4192 73.0036 18.1475 74.501 18.358C75.9245 18.479 77.2738 19.0446 78.3582 19.9747C79.4425 20.9049 80.2068 22.1525 80.543 23.541C80.8093 24.8058 81.0053 26.0845 81.13 27.371H67.363C67.108 31.013 69.065 33.941 71.839 34.647C75.294 35.497 78.247 34 79.319 30.715C79.557 29.872 79.991 29.753 80.757 29.992H80.748ZM67.353 26.205H79.667C79.59 22.325 77.174 19.505 73.897 19.473C70.197 19.413 67.514 22.12 67.353 26.205V26.205ZM83.293 30.077H84.5C84.5443 30.9662 84.8331 31.826 85.3345 32.5617C85.8359 33.2974 86.5306 33.8806 87.342 34.247C88.3609 34.7055 89.47 34.9284 90.5869 34.8989C91.7038 34.8695 92.7997 34.5885 93.793 34.077C94.3345 33.8332 94.788 33.4291 95.0924 32.9192C95.3968 32.4093 95.5373 31.8183 95.495 31.226C95.5262 30.6548 95.3702 30.0889 95.0508 29.6143C94.7314 29.1397 94.2659 28.7822 93.725 28.596C92.397 28.102 90.985 27.83 89.632 27.396C88.2241 26.9952 86.8474 26.4918 85.513 25.89C83.333 24.826 83.198 20.682 85.666 19.37C86.9297 18.6569 88.3519 18.2716 89.8027 18.2492C91.2536 18.2269 92.6869 18.5682 93.972 19.242C95.566 20.122 96.447 21.899 96.185 23.702H95.15C95.15 23.652 95.056 23.608 95.056 23.557C94.928 20.257 92.154 19.225 89.176 19.515C88.276 19.615 87.423 19.887 86.623 20.289C86.1421 20.5086 85.7413 20.8723 85.4762 21.3297C85.211 21.787 85.0946 22.3155 85.143 22.842C85.144 23.3689 85.3082 23.8825 85.6129 24.3122C85.9177 24.742 86.3481 25.0668 86.845 25.242C88.145 25.719 89.525 26.025 90.87 26.399L94.12 27.249C94.8587 27.4915 95.5064 27.9524 95.9774 28.571C96.4484 29.1895 96.7206 29.9364 96.758 30.713C97.018 32.458 96.128 34.173 94.554 34.968C91.712 36.576 87.031 36.151 84.946 34.118C83.879 33.045 83.284 31.588 83.296 30.076L83.293 30.077ZM112.073 23.703H110.941C110.941 23.55 110.881 23.403 110.864 23.286C110.846 22.4375 110.537 21.6209 109.988 20.9733C109.44 20.3257 108.685 19.8864 107.851 19.729C106.278 19.2778 104.6 19.3586 103.077 19.959C102.475 20.1313 101.945 20.4938 101.566 20.9924C101.187 21.491 100.98 22.0988 100.975 22.725C100.953 23.3399 101.145 23.9433 101.517 24.4333C101.889 24.9232 102.419 25.2697 103.017 25.414L108.191 26.742C108.751 26.8762 109.302 27.0438 109.841 27.244C111.491 27.844 112.611 29.376 112.661 31.127C112.686 31.9841 112.451 32.8286 111.987 33.5496C111.523 34.2707 110.851 34.8345 110.061 35.167C108.86 35.7125 107.559 36.0011 106.24 36.0144C104.921 36.0276 103.614 35.7652 102.402 35.244C101.406 34.8143 100.565 34.0897 99.9926 33.1677C99.4205 32.2457 99.1446 31.1706 99.202 30.087H100.308C100.724 32.092 102.101 33.762 103.99 34.552C105.879 35.342 108.036 35.148 109.754 34.036C110.269 33.7679 110.697 33.3578 110.987 32.8541C111.276 32.3504 111.416 31.7743 111.388 31.194C111.414 30.6224 111.252 30.058 110.928 29.5864C110.604 29.1149 110.135 28.7619 109.592 28.581C108.264 28.087 106.852 27.824 105.499 27.381C104.083 26.9863 102.698 26.4887 101.355 25.892C99.227 24.845 99.057 20.735 101.483 19.424C102.762 18.681 104.212 18.2818 105.692 18.2653C107.171 18.2489 108.629 18.6157 109.925 19.33C110.666 19.7723 111.262 20.4204 111.642 21.1956C112.021 21.9708 112.167 22.8395 112.061 23.696L112.073 23.703ZM37.943 35.533C37.4974 35.7015 37.0055 35.701 36.5603 35.5317C36.115 35.3624 35.7471 35.036 35.526 34.614L31.126 28.529L30.488 27.679L25.382 34.623C25.1739 35.0268 24.8259 35.3411 24.403 35.5071C23.9801 35.6731 23.5112 35.6794 23.084 35.525L29.662 26.7L23.542 18.726C24.45 18.398 25.462 18.754 25.967 19.576L30.527 25.736L35.114 19.6C35.3237 19.2031 35.6719 18.8971 36.0925 18.7402C36.513 18.5833 36.9766 18.5864 37.395 18.749L35.02 21.9L31.803 26.087C31.7137 26.1667 31.6423 26.2644 31.5934 26.3737C31.5444 26.4829 31.5192 26.6013 31.5192 26.721C31.5192 26.8407 31.5444 26.9591 31.5934 27.0683C31.6423 27.1776 31.7137 27.2753 31.803 27.355L37.93 35.533H37.943ZM65.873 18.641V19.841C65.0123 19.7845 64.1493 19.9092 63.3397 20.2069C62.5301 20.5046 61.792 20.9687 61.1729 21.5694C60.5538 22.17 60.0675 22.8938 59.7454 23.6939C59.4233 24.4941 59.2726 25.353 59.303 26.215C59.303 29.0177 59.303 31.8203 59.303 34.623V35.576H58.086V18.716H59.286V22.171C60.758 19.651 63.03 18.716 65.881 18.648L65.873 18.641ZM7.33299 26.59L7.86899 23.943C9.34099 18.709 15.341 16.531 19.469 19.773C21.886 21.671 22.489 24.36 22.371 27.39H8.75399C8.53399 32.802 12.439 36.07 17.434 34.402C19.08 33.802 20.319 32.434 20.727 30.734C20.991 29.884 21.427 29.738 22.225 29.984C22.0919 31.0201 21.7256 32.0126 21.1537 32.8868C20.5818 33.7609 19.8191 34.4941 18.923 35.031C17.4426 35.8406 15.744 36.1614 14.0703 35.9475C12.3965 35.7336 10.8332 34.9959 9.60399 33.84C8.38799 32.473 7.65399 30.745 7.51099 28.92C7.51099 28.62 7.41099 28.34 7.34099 28.07C7.33433 27.5653 7.33099 27.072 7.33099 26.59H7.33299ZM8.77099 26.224H21.085C21.008 22.301 18.532 19.518 15.23 19.492C11.554 19.442 8.92399 22.164 8.76199 26.207L8.77099 26.224Z" fill="white"/>
</svg>

<svg xmlns="http://www.w3.org/2000/svg" width="120" height="60"><path d="M40 41.753V18.708h1.25v3.625a4.74 4.74 0 0 0 .408-.511c1.044-2.166 3.246-3.533 5.65-3.506 2.85-.085 5.166.97 6.527 3.506a11.27 11.27 0 0 1 .272 10.331c-1.268 2.842-4.4 4.255-7.753 3.736a6.27 6.27 0 0 1-5.004-3.302v9.165zm1.25-14.893l.28 2.706c.494 3.08 2.315 4.9 5.174 5.242a5.88 5.88 0 0 0 6.459-3.736c1.112-2.65 1.03-5.65-.22-8.238a5.76 5.76 0 0 0-6.068-3.353 5.61 5.61 0 0 0-5.012 4.144 28.62 28.62 0 0 0-.613 3.234zm39.498 3.132a6.74 6.74 0 0 1-6.587 5.957c-5.242.264-7.702-3.217-8.093-7.234a11.59 11.59 0 0 1 1.021-6.383 7.12 7.12 0 0 1 7.412-3.974 6.81 6.81 0 0 1 6.042 5.183 34.97 34.97 0 0 1 .587 3.83H67.363c-.255 3.642 1.702 6.57 4.476 7.276 3.455.85 6.408-.647 7.48-3.932.238-.843.672-.962 1.438-.723zm-13.395-3.787h12.314c-.077-3.88-2.493-6.7-5.77-6.732-3.7-.06-6.383 2.647-6.544 6.732zm15.94 3.872H84.5a4.84 4.84 0 0 0 2.842 4.17 7.43 7.43 0 0 0 6.451-.17 2.9 2.9 0 0 0 1.702-2.851 2.63 2.63 0 0 0-1.77-2.63c-1.328-.494-2.74-.766-4.093-1.2a30 30 0 0 1-4.119-1.506c-2.18-1.064-2.315-5.208.153-6.52a8.69 8.69 0 0 1 8.306-.128c1.594.88 2.475 2.657 2.213 4.46H95.15c0-.05-.094-.094-.094-.145-.128-3.3-2.902-4.332-5.88-4.042-.9.1-1.753.372-2.553.774a2.55 2.55 0 0 0-1.48 2.553 2.55 2.55 0 0 0 1.702 2.4c1.3.477 2.68.783 4.025 1.157l3.25.85a3.84 3.84 0 0 1 2.638 3.464c.26 1.745-.63 3.46-2.204 4.255-2.842 1.608-7.523 1.183-9.608-.85-1.067-1.073-1.662-2.53-1.65-4.042zm28.78-6.374h-1.132c0-.153-.06-.3-.077-.417a3.7 3.7 0 0 0-3.013-3.557 7.43 7.43 0 0 0-4.774.23 2.9 2.9 0 0 0-2.102 2.766 2.67 2.67 0 0 0 2.042 2.689l5.174 1.328a14.39 14.39 0 0 1 1.65.502c1.65.6 2.77 2.132 2.82 3.883a4.25 4.25 0 0 1-2.6 4.04 9.47 9.47 0 0 1-7.659.077 5.31 5.31 0 0 1-3.2-5.157h1.106c.416 2.005 1.793 3.675 3.682 4.465s4.046.596 5.764-.516a3.04 3.04 0 0 0 1.634-2.842 2.63 2.63 0 0 0-1.796-2.613c-1.328-.494-2.74-.757-4.093-1.2a30.15 30.15 0 0 1-4.144-1.489c-2.128-1.047-2.298-5.157.128-6.468a8.57 8.57 0 0 1 8.442-.094 4.45 4.45 0 0 1 2.136 4.366zm-74.13 11.83a1.95 1.95 0 0 1-2.417-.919l-4.4-6.085-.638-.85-5.106 6.944a1.87 1.87 0 0 1-2.298.902l6.578-8.825-6.12-7.974c.908-.328 1.92.028 2.425.85l4.56 6.16 4.587-6.136a1.83 1.83 0 0 1 2.281-.851L35.02 21.9l-3.217 4.187a.85.85 0 0 0 0 1.268l6.127 8.178zm27.93-16.892v1.2a6.17 6.17 0 0 0-6.57 6.374q0 4.204 0 8.408v.953h-1.217v-16.86h1.2v3.455c1.472-2.52 3.744-3.455 6.595-3.523zM7.333 26.59l.536-2.647c1.472-5.234 7.472-7.412 11.6-4.17 2.417 1.898 3.02 4.587 2.902 7.617H8.754c-.22 5.412 3.685 8.68 8.68 7.012 1.646-.6 2.885-1.968 3.293-3.668.264-.85.7-.996 1.498-.75a6.91 6.91 0 0 1-3.302 5.047 8 8 0 0 1-9.319-1.191c-1.216-1.367-1.95-3.095-2.093-4.92 0-.3-.1-.58-.17-.85q-.01-.757-.01-1.48zm1.438-.366h12.314c-.077-3.923-2.553-6.706-5.855-6.732-3.676-.05-6.306 2.672-6.468 6.715z"/></svg>
